!!!OTL: 89e. Die Nonne.
!!!ODT: 1818
!!!ARE: Europa, Mitteleuropa, Deutschland
!!!SCT: E0089G
!!!TXL: @@DE
!!!YEM: Copyright 1995, estate of Helmut Schaffrath.
**kern	**text
*ICvox	*
*M2/4	*
*k[f#]	*
*G:	*
!LO:TX:a:t=Ziemlich langsam.	!
!LO:TX:a:t=Mel. 1818.	!
{8d	Stand
=1	=1
8b	ich
8g	auf
8dd	ho-
8b	-hem
=2	=2
4b/	Ber-
8a}	-ge,
{8a	ſah
=3	=3
8b	in
8g	den
8dd	tie-
8b	-fen
=4	=4
4a	Rhein,
8r}	.
{16bL	ein
16ccJ	.
=5	=5
8dd	Schiff-
8dd	-lein
8dd	ſah
16ddL	ich
16eeJ	.
=6	=6
8ddL	ſchwe-
8bJ	.
4g}	-ben,
=7	=7
{4cc	ſchwe-
4ee	.
=8	=8
8ddL	.
8bJ	.
8g}	-ben,
{8dd	viel
=9	=9
8dd	Rit-
8cc	-ter
8a	tran-
8f#	-ken
=10	=10
4g	drein.
8r}	.
==	==
!!!AGN: erzaehlendes Volks - Lied, Sage, Liebe, Leid, Ballade ?
!!!ONB: ESAC (Essen Associative Code) Database: ERK1
!!!AMT: simple duple
!!!AIN: vox
!!!EED: Helmut Schaffrath
!!!EEV: 1.0
!!!GTL: Liebesgeschichten mit tragischem Schluss
!!!URL-scan: https://rosdok.uni-rostock.de/mcrviewer/recordIdentifier/rosdok_ppn745146120/iview2/phys_0383.iview2?x=-422.27491384562836&y=2015.9675418522675&scale=0.554360769283424&rotation=0&layout=singlePageLayout
!!!ENC: Anna Maria Matuszewska
!!!EEV: 2024/11/28
*-	*-
